images/instagramm.svg

<svg width="25" height="25" viewBox="0 0 25 25" fill="none" xmlns="http://www.w3.org/2000/svg">
<path fill-rule="evenodd" clip-rule="evenodd" d="M5.24206 0.217458C3.01766 0.783648 1.52734 2.01043 0.565041 4.06727L0.00012207 5.27493V12.3196C0.00012207 20.0154 0.0390334 20.3396 1.16222 22.0058C2.00718 23.2594 3.16363 24.122 4.65274 24.6093C5.73561 24.9636 6.45738 25 12.3993 25C18.0832 25 19.1036 24.9531 20.0977 24.646C22.2068 23.9944 23.9019 22.3065 24.6088 20.1539C24.9632 19.0744 25.0001 18.3533 25.0001 12.5209C25.0001 7.00973 24.9503 5.91961 24.6552 4.96899C24.1937 3.48276 23.2943 2.17225 22.1943 1.38365C20.3882 0.0888419 20.2304 0.0654939 12.9033 0.0105455C8.02956 -0.0258855 5.98057 0.0294656 5.24206 0.217458ZM20.1213 2.82902C21.4138 3.46284 22.0822 4.28928 22.5062 5.77812C22.8852 7.10895 22.8808 17.7647 22.5007 19.2487C22.1281 20.7036 21.0031 21.9309 19.5915 22.4227C18.6757 22.7417 17.811 22.786 12.5001 22.786C6.1102 22.7858 5.42936 22.7079 4.11807 21.8255C3.20274 21.2098 2.59548 20.2636 2.33379 19.045C2.20819 18.4603 2.11706 15.6443 2.11706 12.3462C2.11706 6.00536 2.24649 5.12518 3.36524 3.85291C4.73561 2.29483 5.41907 2.17789 12.9033 2.22096L18.9517 2.25578L20.1213 2.82902ZM18.5485 4.40622C17.5731 4.97643 17.3919 5.80972 18.0592 6.65669C18.8888 7.70956 20.6654 7.12586 20.6654 5.80046C20.6654 4.69545 19.4372 3.88652 18.5485 4.40622ZM10.6856 6.2487C8.79165 6.87527 7.30355 8.17954 6.51484 9.90428C5.87996 11.2925 5.86706 13.7231 6.48722 15.0722C7.1346 16.4806 8.38581 17.7178 9.80577 18.3541C10.9193 18.8528 11.2152 18.8995 12.7931 18.8242C14.2487 18.7546 14.7046 18.6469 15.4923 18.186C17.6318 16.9343 18.6935 15.2429 18.8175 12.8884C18.9122 11.0862 18.5021 9.76057 17.4308 8.40739C15.9562 6.54518 12.8219 5.54202 10.6856 6.2487ZM14.5711 8.92829C18.0076 10.9032 16.8288 16.2801 12.8876 16.6064C11.4497 16.7253 10.2209 16.2576 9.30052 15.2405C7.78097 13.5613 7.82653 11.4036 9.41786 9.68006C10.8223 8.15881 12.7443 7.87864 14.5711 8.92829Z" fill="#F5F5F6"/>
</svg>

<svg width="25" height="25" fill="none" xmlns="http://www.w3.org/2000/svg"><path fill-rule="evenodd" clip-rule="evenodd" d="M5.242.217C3.018.784 1.527 2.01.565 4.067L0 5.275v7.045c0 7.695.039 8.02 1.162 9.686.845 1.253 2.002 2.116 3.49 2.603 1.084.355 1.805.391 7.747.391 5.684 0 6.705-.047 7.699-.354 2.109-.652 3.804-2.34 4.51-4.492.355-1.08.392-1.8.392-7.633 0-5.511-.05-6.601-.345-7.552-.461-1.486-1.36-2.797-2.46-3.585C20.387.089 20.23.065 12.902.01 8.03-.026 5.981.029 5.243.217zm14.88 2.612c1.292.634 1.96 1.46 2.384 2.95.38 1.33.375 11.986-.005 13.47a4.627 4.627 0 01-2.91 3.174c-.915.319-1.78.363-7.09.363-6.39 0-7.072-.078-8.383-.96-.915-.616-1.523-1.562-1.784-2.781-.126-.585-.217-3.4-.217-6.699 0-6.34.13-7.22 1.248-8.493 1.37-1.558 2.054-1.675 9.538-1.632l6.049.035 1.17.573zm-1.573 1.577c-.976.57-1.157 1.404-.49 2.25.83 1.054 2.606.47 2.606-.856 0-1.105-1.228-1.913-2.116-1.394zM10.686 6.25c-1.894.626-3.382 1.93-4.171 3.655-.635 1.389-.648 3.82-.028 5.168.648 1.409 1.899 2.646 3.319 3.282 1.113.499 1.41.546 2.987.47 1.456-.07 1.912-.177 2.7-.638 2.139-1.252 3.2-2.943 3.324-5.298.095-1.802-.315-3.127-1.386-4.48-1.475-1.863-4.61-2.866-6.745-2.16zm3.885 2.68c3.437 1.974 2.258 7.351-1.683 7.677-1.438.12-2.667-.348-3.587-1.366-1.52-1.679-1.474-3.836.117-5.56 1.404-1.521 3.326-1.801 5.153-.752z" fill="#F5F5F6"/></svg>
